; generated by PrusaSlicer 2.1.0+ on 2020-02-22 at 15:57:04 UTC

; 

; external perimeters extrusion width = 0.45mm
; perimeters extrusion width = 0.45mm
; infill extrusion width = 0.45mm
; solid infill extrusion width = 0.45mm
; top infill extrusion width = 0.40mm
; first layer extrusion width = 0.42mm

M73 P0 R324
M73 Q0 S326
M201 X1000 Y1000 Z1000 E5000 ; sets maximum accelerations, mm/sec^2
M203 X200 Y200 Z12 E120 ; sets maximum feedrates, mm/sec
M204 P1250 R1250 T1250 ; sets acceleration (P, T) and retract acceleration (R), mm/sec^2
M205 X8.00 Y8.00 Z0.40 E1.50 ; sets the jerk limits, mm/sec
M205 S0 T0 ; sets the minimum extruding and travel feed rate, mm/sec
M107
M115 U3.8.0 ; tell printer latest fw version
G90 ; use absolute coordinates
M83 ; extruder relative mode
M104 S215 ; set extruder temp
M140 S65 ; set bed temp
M190 S65 ; wait for bed temp
M109 S215 ; wait for extruder temp
G28 W ; home all without mesh bed level
G80 ; mesh bed leveling
G1 Y-3.0 F1000.0 ; go outside print area
G92 E0.0
G1 X60.0 E9.0 F1000.0 ; intro line
M73 Q0 S326
M73 P0 R324
G1 X100.0 E12.5 F1000.0 ; intro line
G92 E0.0
M221 S95
G21 ; set units to millimeters
G90 ; use absolute coordinates
M83 ; use relative distances for extrusion
M900 K30 ; Filament gcode
;BEFORE_LAYER_CHANGE
G92 E0.0
;0.2


G1 E-0.80000 F2100.00000
G1 Z0.600 F10800.000
;AFTER_LAYER_CHANGE
;0.2
G1 X3.045 Y46.365
G1 Z0.200
G1 E0.80000 F2100.00000
M204 S1000
G1 F1200
G1 X3.551 Y46.028 E0.01908
G1 X4.012 Y45.867 E0.01532
G1 X4.498 Y45.811 E0.01532
G1 X245.504 Y45.811 E7.55657
G1 X246.337 Y45.978 E0.02664
G1 X247.042 Y46.447 E0.02653
G1 X247.517 Y47.151 E0.02664
G1 X247.688 Y47.983 E0.02664
G1 X247.688 Y162.022 E3.57561
G1 X247.599 Y162.620 E0.01896
G1 X247.347 Y163.174 E0.01908
G1 X246.955 Y163.635 E0.01896
G1 X246.449 Y163.972 E0.01908
G1 X245.988 Y164.133 E0.01532
G1 X245.502 Y164.189 E0.01532
G1 X4.493 Y164.189 E7.55668
G1 X3.891 Y164.102 E0.01908
G1 X3.332 Y163.851 E0.01919
G1 X2.868 Y163.458 E0.01908
G1 X2.528 Y162.949 E0.01919
G1 X2.367 Y162.488 E0.01532
G1 X2.311 Y162.002 E0.01532
G1 X2.312 Y47.982 E3.57503
G1 X2.401 Y47.380 E0.01908
G1 X2.651 Y46.829 E0.01896
G1 X3.006 Y46.411 E0.01719
G1 F8640
G1 X3.551 Y46.028 E-0.15384
G1 X4.012 Y45.867 E-0.11285
G1 X4.498 Y45.811 E-0.11285
G1 X6.145 Y45.811 E-0.38046
G1 E-0.04000 F2100.00000
G1 Z0.800 F10800.000
G1 X8.913 Y52.413
G1 Z0.200
G1 E0.80000 F2100.00000
G1 F1200
G1 X241.087 Y52.413 E7.27966
G1 X241.087 Y157.587 E3.29766
G1 X8.913 Y157.587 E7.27966
M73 Q0 S324
M73 P0 R323
G1 X8.913 Y52.473 E3.29578
G1 X9.290 Y52.790 F10800.000
G1 F1200
G1 X240.710 Y52.790 E7.25601
G1 X240.710 Y157.210 E3.27402
G1 X9.290 Y157.210 E7.25601
G1 X9.290 Y52.850 E3.27213
G1 X9.141 Y52.419 F10800.000
G1 F8640
G1 X12.581 Y52.849 E-0.76000
G1 E-0.04000 F2100.00000
G1 Z0.800 F10800.000
G1 X5.087 Y48.587
G1 Z0.200
G1 E0.80000 F2100.00000
G1 F1200
G1 X244.913 Y48.587 E7.51957
G1 X244.913 Y161.413 E3.53758
G1 X5.087 Y161.413 E7.51957
M73 Q0 S323
M73 P0 R322
G1 X5.087 Y48.647 E3.53569
G1 X4.710 Y48.210 F10800.000
G1 F1200
G1 X245.290 Y48.210 E7.54322
G1 X245.290 Y161.790 E3.56122
G1 X4.710 Y161.790 E7.54322
G1 X4.710 Y48.270 E3.55934
G1 X5.106 Y48.269 F10800.000
G1 F8640
G1 X8.001 Y48.269 E-0.76000
G1 E-0.04000 F2100.00000
G1 Z0.800 F10800.000
G1 X5.964 Y161.300
G1 Z0.200
G1 E0.80000 F2100.00000
G1 F1200
G1 X5.370 Y160.706 E0.02636
G1 X5.370 Y160.172 E0.01675
G1 X6.328 Y161.130 E0.04252
G1 X6.862 Y161.130 E0.01675
G1 X5.370 Y159.638 E0.06621
G1 X5.370 Y159.105 E0.01675
G1 X7.395 Y161.130 E0.08990
G1 X7.929 Y161.130 E0.01675
G1 X5.370 Y158.571 E0.11359
G1 X5.370 Y158.037 E0.01675
G1 X8.463 Y161.130 E0.13727
G1 X8.997 Y161.130 E0.01675
G1 X5.370 Y157.503 E0.16096
G1 X5.370 Y156.970 E0.01675
G1 X9.530 Y161.130 E0.18465
G1 X10.064 Y161.130 E0.01675
G1 X5.370 Y156.436 E0.20834
G1 X5.370 Y155.902 E0.01675
G1 X10.598 Y161.130 E0.23203
G1 X11.132 Y161.130 E0.01675
G1 X5.370 Y155.368 E0.25572
G1 X5.370 Y154.835 E0.01675
G1 X11.835 Y161.300 E0.28694
G1 F8640
G1 X9.508 Y158.972 E-0.76000
G1 E-0.04000 F2100.00000
G1 Z0.800 F10800.000
G1 X244.800 Y56.402
G1 Z0.200
G1 E0.80000 F2100.00000
G1 F1200
G1 X241.370 Y52.972 E0.15223
G1 X241.370 Y53.506 E0.01675
G1 X244.630 Y56.766 E0.14470
G1 X244.630 Y57.300 E0.01675
G1 X241.370 Y54.039 E0.14470
G1 X241.370 Y54.573 E0.01675
G1 X244.630 Y57.833 E0.14470
G1 X244.630 Y58.367 E0.01675
G1 X241.370 Y55.107 E0.14470
G1 X241.370 Y55.641 E0.01675
G1 X244.630 Y58.901 E0.14470
G1 X244.630 Y59.435 E0.01675
G1 X241.370 Y56.174 E0.14470
G1 X241.370 Y56.708 E0.01675
G1 X244.630 Y59.968 E0.14470
G1 X244.630 Y60.502 E0.01675
G1 X241.370 Y57.242 E0.14470
G1 X241.370 Y57.776 E0.01675
G1 X244.630 Y61.036 E0.14470
G1 X244.630 Y61.570 E0.01675
G1 X241.370 Y58.309 E0.14470
G1 X241.370 Y58.843 E0.01675
G1 X244.630 Y62.103 E0.14470
G1 X244.630 Y62.637 E0.01675
G1 X241.370 Y59.377 E0.14470
G1 X241.370 Y59.911 E0.01675
G1 X244.630 Y63.171 E0.14470
G1 X244.630 Y63.705 E0.01675
G1 X241.370 Y60.444 E0.14470
G1 X241.370 Y60.978 E0.01675
G1 X244.630 Y64.238 E0.14470
G1 X244.630 Y64.772 E0.01675
G1 X241.370 Y61.512 E0.14470
G1 X241.370 Y62.046 E0.01675
G1 X244.630 Y65.306 E0.14470
G1 X244.630 Y65.840 E0.01675
G1 X241.370 Y62.579 E0.14470
G1 X241.370 Y63.113 E0.01675
G1 X244.630 Y66.373 E0.14470
G1 X244.630 Y66.907 E0.01675
G1 X241.370 Y63.647 E0.14470
G1 X241.370 Y64.181 E0.01675
G1 X244.630 Y67.441 E0.14470
G1 X244.630 Y67.975 E0.01675
G1 X241.370 Y64.714 E0.14470
G1 X241.370 Y65.248 E0.01675
G1 X244.630 Y68.508 E0.14470
G1 X244.630 Y69.042 E0.01675
G1 X241.370 Y65.782 E0.14470
G1 X241.370 Y66.316 E0.01675
G1 X244.630 Y69.576 E0.14470
G1 X244.630 Y70.110 E0.01675
G1 X241.370 Y66.849 E0.14470
G1 X241.370 Y67.383 E0.01675
G1 X244.630 Y70.643 E0.14470
G1 X244.630 Y71.177 E0.01675
G1 X241.370 Y67.917 E0.14470
G1 X241.370 Y68.451 E0.01675
G1 X244.630 Y71.711 E0.14470
G1 X244.630 Y72.245 E0.01675
G1 X241.370 Y68.984 E0.14470
G1 X241.370 Y69.518 E0.01675
G1 X244.630 Y72.778 E0.14470
G1 X244.630 Y73.312 E0.01675
G1 X241.370 Y70.052 E0.14470
G1 X241.370 Y70.586 E0.01675
G1 X244.630 Y73.846 E0.14470
G1 X244.630 Y74.380 E0.01675
G1 X241.370 Y71.119 E0.14470
G1 X241.370 Y71.653 E0.01675
G1 X244.630 Y74.913 E0.14470
G1 X244.630 Y75.447 E0.01675
G1 X241.370 Y72.187 E0.14470
G1 X241.370 Y72.721 E0.01675
G1 X244.630 Y75.981 E0.14470
G1 X244.630 Y76.515 E0.01675
G1 X241.370 Y73.254 E0.14470
G1 X241.370 Y73.788 E0.01675
G1 X244.630 Y77.048 E0.14470
G1 X244.630 Y77.582 E0.01675
G1 X241.370 Y74.322 E0.14470
G1 X241.370 Y74.856 E0.01675
G1 X244.630 Y78.116 E0.14470
G1 X244.630 Y78.650 E0.01675
G1 X241.370 Y75.389 E0.14470
M73 Q1 S322
G1 X241.370 Y75.923 E0.01675
G1 X244.630 Y79.183 E0.14470
G1 X244.630 Y79.717 E0.01675
G1 X241.370 Y76.457 E0.14470
G1 X241.370 Y76.991 E0.01675
G1 X244.630 Y80.251 E0.14470
G1 X244.630 Y80.785 E0.01675
G1 X241.370 Y77.524 E0.14470
M73 P1 R321
G1 X241.370 Y78.058 E0.01675
G1 X244.630 Y81.318 E0.14470
G1 X244.630 Y81.852 E0.01675
G1 X241.370 Y78.592 E0.14470
G1 X241.370 Y79.126 E0.01675
G1 X244.630 Y82.386 E0.14470
G1 X244.630 Y82.920 E0.01675
G1 X241.370 Y79.659 E0.14470
G1 X241.370 Y80.193 E0.01675
G1 X244.630 Y83.453 E0.14470
G1 X244.630 Y83.987 E0.01675
G1 X241.370 Y80.727 E0.14470
G1 X241.370 Y81.261 E0.01675
G1 X244.630 Y84.521 E0.14470
G1 X244.630 Y85.055 E0.01675
G1 X241.370 Y81.794 E0.14470
G1 X241.370 Y82.328 E0.01675
G1 X244.630 Y85.588 E0.14470
G1 X244.630 Y86.122 E0.01675
G1 X241.370 Y82.862 E0.14470
G1 X241.370 Y83.396 E0.01675
G1 X244.630 Y86.656 E0.14470
G1 X244.630 Y87.190 E0.01675
G1 X241.370 Y83.929 E0.14470
G1 X241.370 Y84.463 E0.01675
G1 X244.630 Y87.723 E0.14470
G1 X244.630 Y88.257 E0.01675
G1 X241.370 Y84.997 E0.14470
G1 X241.370 Y85.531 E0.01675
G1 X244.630 Y88.791 E0.14470
G1 X244.630 Y89.325 E0.01675
G1 X241.370 Y86.064 E0.14470
G1 X241.370 Y86.598 E0.01675
G1 X244.630 Y89.858 E0.14470
G1 X244.630 Y90.392 E0.01675
G1 X241.370 Y87.132 E0.14470
G1 X241.370 Y87.666 E0.01675
G1 X244.630 Y90.926 E0.14470
G1 X244.630 Y91.460 E0.01675
G1 X241.370 Y88.199 E0.14470
G1 X241.370 Y88.733 E0.01675
G1 X244.630 Y91.993 E0.14470
G1 X244.630 Y92.527 E0.01675
G1 X241.370 Y89.267 E0.14470
G1 X241.370 Y89.801 E0.01675
G1 X244.630 Y93.061 E0.14470
G1 X244.630 Y93.595 E0.01675
G1 X241.370 Y90.334 E0.14470
G1 X241.370 Y90.868 E0.01675
G1 X244.630 Y94.128 E0.14470
G1 X244.630 Y94.662 E0.01675
G1 X241.370 Y91.402 E0.14470
G1 X241.370 Y91.936 E0.01675
G1 X244.630 Y95.196 E0.14470
G1 X244.630 Y95.730 E0.01675
G1 X241.370 Y92.469 E0.14470
G1 X241.370 Y93.003 E0.01675
G1 X244.630 Y96.263 E0.14470
G1 X244.630 Y96.797 E0.01675
G1 X241.370 Y93.537 E0.14470
G1 X241.370 Y94.071 E0.01675
G1 X244.630 Y97.331 E0.14470
G1 X244.630 Y97.865 E0.01675
G1 X241.370 Y94.604 E0.14470
G1 X241.370 Y95.138 E0.01675
G1 X244.630 Y98.398 E0.14470
G1 X244.630 Y98.932 E0.01675
G1 X241.370 Y95.672 E0.14470
G1 X241.370 Y96.206 E0.01675
G1 X244.630 Y99.466 E0.14470
G1 X244.630 Y100.000 E0.01675
G1 X241.370 Y96.739 E0.14470
G1 X241.370 Y97.273 E0.01675
G1 X244.630 Y100.533 E0.14470
G1 X244.630 Y101.067 E0.01675
G1 X241.370 Y97.807 E0.14470
G1 X241.370 Y98.341 E0.01675
G1 X244.630 Y101.601 E0.14470
G1 X244.630 Y102.135 E0.01675
G1 X241.370 Y98.874 E0.14470
G1 X241.370 Y99.408 E0.01675
G1 X244.630 Y102.668 E0.14470
G1 X244.630 Y103.202 E0.01675
G1 X241.370 Y99.942 E0.14470
G1 X241.370 Y100.476 E0.01675
G1 X244.630 Y103.736 E0.14470
G1 X244.630 Y104.270 E0.01675
G1 X241.370 Y101.009 E0.14470
G1 X241.370 Y101.543 E0.01675
G1 X244.630 Y104.803 E0.14470
G1 X244.630 Y105.337 E0.01675
G1 X241.370 Y102.077 E0.14470
G1 X241.370 Y102.611 E0.01675
G1 X244.630 Y105.871 E0.14470
G1 X244.630 Y106.405 E0.01675
G1 X241.370 Y103.144 E0.14470
G1 X241.370 Y103.678 E0.01675
G1 X244.630 Y106.938 E0.14470
G1 X244.630 Y107.472 E0.01675
G1 X241.370 Y104.212 E0.14470
G1 X241.370 Y104.746 E0.01675
G1 X244.630 Y108.006 E0.14470
G1 X244.630 Y108.540 E0.01675
G1 X241.370 Y105.279 E0.14470
G1 X241.370 Y105.813 E0.01675
G1 X244.630 Y109.073 E0.14470
G1 X244.630 Y109.607 E0.01675
G1 X241.370 Y106.347 E0.14470
G1 X241.370 Y106.881 E0.01675
G1 X244.630 Y110.141 E0.14470
G1 X244.630 Y110.675 E0.01675
G1 X241.370 Y107.414 E0.14470
G1 X241.370 Y107.948 E0.01675
G1 X244.630 Y111.208 E0.14470
G1 X244.630 Y111.742 E0.01675
G1 X241.370 Y108.482 E0.14470
G1 X241.370 Y109.016 E0.01675
G1 X244.630 Y112.276 E0.14470
G1 X244.630 Y112.810 E0.01675
G1 X241.370 Y109.549 E0.14470
G1 X241.370 Y110.083 E0.01675
G1 X244.630 Y113.343 E0.14470
G1 X244.630 Y113.877 E0.01675
G1 X241.370 Y110.617 E0.14470
G1 X241.370 Y111.150 E0.01675
G1 X244.630 Y114.411 E0.14470
G1 X244.630 Y114.945 E0.01675
G1 X241.370 Y111.684 E0.14470
G1 X241.370 Y112.218 E0.01675
G1 X244.630 Y115.478 E0.14470
G1 X244.630 Y116.012 E0.01675
G1 X241.370 Y112.752 E0.14470
G1 X241.370 Y113.285 E0.01675
G1 X244.630 Y116.546 E0.14470
G1 X244.630 Y117.080 E0.01675
G1 X241.370 Y113.819 E0.14470
G1 X241.370 Y114.353 E0.01675
G1 X244.630 Y117.613 E0.14470
G1 X244.630 Y118.147 E0.01675
G1 X241.370 Y114.887 E0.14470
G1 X241.370 Y115.420 E0.01675
G1 X244.630 Y118.681 E0.14470
G1 X244.630 Y119.215 E0.01675
G1 X241.370 Y115.954 E0.14470
G1 X241.370 Y116.488 E0.01675
G1 X244.630 Y119.748 E0.14470
G1 X244.630 Y120.282 E0.01675
G1 X241.370 Y117.022 E0.14470
G1 X241.370 Y117.555 E0.01675
G1 X244.630 Y120.816 E0.14470
G1 X244.630 Y121.349 E0.01675
G1 X241.370 Y118.089 E0.14470
G1 X241.370 Y118.623 E0.01675
G1 X244.630 Y121.883 E0.14470
G1 X244.630 Y122.417 E0.01675
G1 X241.370 Y119.157 E0.14470
G1 X241.370 Y119.690 E0.01675
G1 X244.630 Y122.951 E0.14470
G1 X244.630 Y123.484 E0.01675
G1 X241.370 Y120.224 E0.14470
G1 X241.370 Y120.758 E0.01675
G1 X244.630 Y124.018 E0.14470
G1 X244.630 Y124.552 E0.01675
G1 X241.370 Y121.292 E0.14470
G1 X241.370 Y121.825 E0.01675
G1 X244.630 Y125.086 E0.14470
G1 X244.630 Y125.619 E0.01675
G1 X241.370 Y122.359 E0.14470
G1 X241.370 Y122.893 E0.01675
G1 X244.630 Y126.153 E0.14470
G1 X244.630 Y126.687 E0.01675
G1 X241.370 Y123.427 E0.14470
G1 X241.370 Y123.960 E0.01675
G1 X244.630 Y127.221 E0.14470
G1 X244.630 Y127.754 E0.01675
G1 X241.370 Y124.494 E0.14470
G1 X241.370 Y125.028 E0.01675
G1 X244.630 Y128.288 E0.14470
G1 X244.630 Y128.822 E0.01675
G1 X241.370 Y125.562 E0.14470
G1 X241.370 Y126.095 E0.01675
G1 X244.630 Y129.356 E0.14470
G1 X244.630 Y129.889 E0.01675
G1 X241.370 Y126.629 E0.14470
G1 X241.370 Y127.163 E0.01675
G1 X244.630 Y130.423 E0.14470
G1 X244.630 Y130.957 E0.01675
G1 X241.370 Y127.697 E0.14470
G1 X241.370 Y128.230 E0.01675
G1 X244.630 Y131.491 E0.14470
G1 X244.630 Y132.024 E0.01675
G1 X241.370 Y128.764 E0.14470
G1 X241.370 Y129.298 E0.01675
G1 X244.630 Y132.558 E0.14470
G1 X244.630 Y133.092 E0.01675
G1 X241.370 Y129.832 E0.14470
G1 X241.370 Y130.365 E0.01675
G1 X244.630 Y133.626 E0.14470
G1 X244.630 Y134.159 E0.01675
G1 X241.370 Y130.899 E0.14470
G1 X241.370 Y131.433 E0.01675
G1 X244.630 Y134.693 E0.14470
G1 X244.630 Y135.227 E0.01675
G1 X241.370 Y131.967 E0.14470
G1 X241.370 Y132.500 E0.01675
G1 X244.630 Y135.761 E0.14470
G1 X244.630 Y136.294 E0.01675
G1 X241.370 Y133.034 E0.14470
G1 X241.370 Y133.568 E0.01675
G1 X244.630 Y136.828 E0.14470
G1 X244.630 Y137.362 E0.01675
G1 X241.370 Y134.102 E0.14470
G1 X241.370 Y134.635 E0.01675
G1 X244.630 Y137.896 E0.14470
G1 X244.630 Y138.429 E0.01675
G1 X241.370 Y135.169 E0.14470
G1 X241.370 Y135.703 E0.01675
G1 X244.630 Y138.963 E0.14470
G1 X244.630 Y139.497 E0.01675
G1 X241.370 Y136.237 E0.14470
G1 X241.370 Y136.770 E0.01675
G1 X244.630 Y140.031 E0.14470
G1 X244.630 Y140.564 E0.01675
G1 X241.370 Y137.304 E0.14470
G1 X241.370 Y137.838 E0.01675
G1 X244.630 Y141.098 E0.14470
G1 X244.630 Y141.632 E0.01675
G1 X241.370 Y138.372 E0.14470
G1 X241.370 Y138.905 E0.01675
G1 X244.630 Y142.166 E0.14470
G1 X244.630 Y142.699 E0.01675
G1 X241.370 Y139.439 E0.14470
G1 X241.370 Y139.973 E0.01675
G1 X244.630 Y143.233 E0.14470
G1 X244.630 Y143.767 E0.01675
G1 X241.370 Y140.507 E0.14470
G1 X241.370 Y141.040 E0.01675
G1 X244.630 Y144.301 E0.14470
G1 X244.630 Y144.834 E0.01675
G1 X241.370 Y141.574 E0.14470
G1 X241.370 Y142.108 E0.01675
G1 X244.630 Y145.368 E0.14470
G1 X244.630 Y145.902 E0.01675
G1 X241.370 Y142.642 E0.14470
G1 X241.370 Y143.175 E0.01675
G1 X244.630 Y146.436 E0.14470
G1 X244.630 Y146.969 E0.01675
G1 X241.370 Y143.709 E0.14470
G1 X241.370 Y144.243 E0.01675
G1 X244.630 Y147.503 E0.14470
G1 X244.630 Y148.037 E0.01675
G1 X241.370 Y144.777 E0.14470
G1 X241.370 Y145.310 E0.01675
G1 X244.630 Y148.571 E0.14470
G1 X244.630 Y149.104 E0.01675
G1 X241.370 Y145.844 E0.14470
G1 X241.370 Y146.378 E0.01675
G1 X244.630 Y149.638 E0.14470
G1 X244.630 Y150.172 E0.01675
G1 X241.370 Y146.912 E0.14470
G1 X241.370 Y147.445 E0.01675
G1 X244.630 Y150.706 E0.14470
G1 X244.630 Y151.239 E0.01675
G1 X241.370 Y147.979 E0.14470
G1 X241.370 Y148.513 E0.01675
G1 X244.630 Y151.773 E0.14470
G1 X244.630 Y152.307 E0.01675
G1 X241.370 Y149.047 E0.14470
G1 X241.370 Y149.580 E0.01675
G1 X244.630 Y152.841 E0.14470
G1 X244.630 Y153.374 E0.01675
G1 X241.370 Y150.114 E0.14470
G1 X241.370 Y150.648 E0.01675
G1 X244.630 Y153.908 E0.14470
G1 X244.630 Y154.442 E0.01675
G1 X241.370 Y151.182 E0.14470
G1 X241.370 Y151.715 E0.01675
G1 X244.630 Y154.976 E0.14470
G1 X244.630 Y155.509 E0.01675
G1 X241.370 Y152.249 E0.14470
G1 X241.370 Y152.783 E0.01675
G1 X244.630 Y156.043 E0.14470
G1 X244.630 Y156.577 E0.01675
G1 X241.370 Y153.317 E0.14470
G1 X241.370 Y153.850 E0.01675
G1 X244.630 Y157.111 E0.14470
G1 X244.630 Y157.644 E0.01675
G1 X241.370 Y154.384 E0.14470
G1 X241.370 Y154.918 E0.01675
G1 X244.630 Y158.178 E0.14470
G1 X244.630 Y158.712 E0.01675
G1 X241.370 Y155.452 E0.14470
G1 X241.370 Y155.985 E0.01675
G1 X244.630 Y159.246 E0.14470
G1 X244.630 Y159.779 E0.01675
G1 X241.370 Y156.519 E0.14470
G1 X241.370 Y157.053 E0.01675
G1 X244.630 Y160.313 E0.14470
G1 X244.630 Y160.847 E0.01675
G1 X241.370 Y157.587 E0.14470
G1 X241.370 Y157.870 E0.00889
G1 X241.119 Y157.870 E0.00786
G1 X244.380 Y161.130 E0.14470
G1 X243.846 Y161.130 E0.01675
G1 X240.586 Y157.870 E0.14470
G1 X240.052 Y157.870 E0.01675
G1 X243.312 Y161.130 E0.14470
