; generated by PrusaSlicer 2.1.0+ on 2020-02-22 at 22:32:28 UTC

; 

; external perimeters extrusion width = 0.45mm
; perimeters extrusion width = 0.45mm
; infill extrusion width = 0.45mm
; solid infill extrusion width = 0.45mm
; top infill extrusion width = 0.40mm
; first layer extrusion width = 0.42mm

M73 P0 R253
M73 Q0 S254
M201 X1000 Y1000 Z1000 E5000 ; sets maximum accelerations, mm/sec^2
M203 X200 Y200 Z12 E120 ; sets maximum feedrates, mm/sec
M204 P1250 R1250 T1250 ; sets acceleration (P, T) and retract acceleration (R), mm/sec^2
M205 X8.00 Y8.00 Z0.40 E1.50 ; sets the jerk limits, mm/sec
M205 S0 T0 ; sets the minimum extruding and travel feed rate, mm/sec
M107
M115 U3.8.0 ; tell printer latest fw version
G90 ; use absolute coordinates
M83 ; extruder relative mode
M104 S215 ; set extruder temp
M140 S65 ; set bed temp
M190 S65 ; wait for bed temp
M109 S215 ; wait for extruder temp
G28 W ; home all without mesh bed level
G80 ; mesh bed leveling
G1 Y-3.0 F1000.0 ; go outside print area
G92 E0.0
G1 X60.0 E9.0 F1000.0 ; intro line
M73 Q0 S254
M73 P0 R253
G1 X100.0 E12.5 F1000.0 ; intro line
G92 E0.0
M221 S95
G21 ; set units to millimeters
G90 ; use absolute coordinates
M83 ; use relative distances for extrusion
M900 K30 ; Filament gcode
;BEFORE_LAYER_CHANGE
G92 E0.0
;0.2


G1 E-0.80000 F2100.00000
G1 Z0.600 F10800.000
;AFTER_LAYER_CHANGE
;0.2
G1 X100.924 Y39.507
G1 Z0.200
G1 E0.80000 F2100.00000
M204 S1000
G1 F1200
G1 X101.227 Y38.917 E0.02078
G1 X101.692 Y38.445 E0.02078
G1 X102.277 Y38.134 E0.02078
G1 X102.928 Y38.013 E0.02078
G1 X147.004 Y38.011 E1.38195
G1 X147.830 Y38.175 E0.02642
G1 X148.536 Y38.641 E0.02653
G1 X149.011 Y39.337 E0.02642
G1 X149.188 Y40.165 E0.02653
G1 X149.189 Y169.804 E4.06473
G1 X149.076 Y170.493 E0.02191
G1 X148.773 Y171.083 E0.02078
G1 X148.305 Y171.557 E0.02089
G1 X147.720 Y171.867 E0.02078
G1 X147.064 Y171.988 E0.02089
G1 X102.993 Y171.989 E1.38184
G1 X102.307 Y171.876 E0.02179
G1 X101.708 Y171.567 E0.02112
G1 X101.230 Y171.087 E0.02123
G1 X100.923 Y170.488 E0.02112
G1 X100.812 Y169.824 E0.02112
G1 X100.811 Y40.196 E4.06439
G1 X100.914 Y39.566 E0.02003
G1 F8640
G1 X101.227 Y38.917 E-0.16624
G1 X101.692 Y38.445 E-0.15300
G1 X102.277 Y38.134 E-0.15300
G1 X102.928 Y38.013 E-0.15300
G1 X103.512 Y38.013 E-0.13476
G1 E-0.04000 F2100.00000
G1 Z0.800 F10800.000
G1 X103.587 Y40.787
G1 Z0.200
G1 E0.80000 F2100.00000
G1 F1200
G1 X146.413 Y40.787 E1.34277
G1 X146.413 Y169.213 E4.02670
G1 X103.587 Y169.213 E1.34277
G1 X103.587 Y40.847 E4.02482
G1 X103.210 Y40.410 F10800.000
G1 F1200
G1 X146.790 Y40.410 E1.36642
G1 X146.790 Y169.590 E4.05035
G1 X103.210 Y169.590 E1.36642
G1 X103.210 Y40.470 E4.04847
G1 X103.576 Y40.571 F10800.000
G1 F8640
G1 X106.501 Y40.465 E-0.76000
G1 E-0.04000 F2100.00000
G1 Z0.800 F10800.000
G1 X146.300 Y41.664
G1 Z0.200
G1 E0.80000 F2100.00000
G1 F1200
G1 X145.706 Y41.070 E0.02636
G1 X145.172 Y41.070 E0.01677
G1 X146.130 Y42.028 E0.04253
G1 X146.130 Y42.562 E0.01677
G1 X144.638 Y41.070 E0.06624
G1 X144.104 Y41.070 E0.01677
G1 X146.130 Y43.096 E0.08995
G1 X146.130 Y43.630 E0.01677
G1 X143.570 Y41.070 E0.11366
G1 X143.036 Y41.070 E0.01677
G1 X146.130 Y44.164 E0.13737
G1 X146.130 Y44.698 E0.01677
G1 X142.502 Y41.070 E0.16108
G1 X141.968 Y41.070 E0.01677
G1 X146.130 Y45.232 E0.18479
G1 X146.130 Y45.766 E0.01677
G1 X141.434 Y41.070 E0.20850
G1 X140.900 Y41.070 E0.01677
G1 X146.130 Y46.300 E0.23221
G1 X146.130 Y46.834 E0.01677
G1 X140.366 Y41.070 E0.25592
G1 X139.832 Y41.070 E0.01677
G1 X146.130 Y47.368 E0.27963
M73 Q0 S253
G1 X146.130 Y47.902 E0.01677
G1 X139.298 Y41.070 E0.30334
M73 P0 R252
G1 X138.764 Y41.070 E0.01677
G1 X146.130 Y48.436 E0.32705
G1 X146.130 Y48.970 E0.01677
G1 X138.230 Y41.070 E0.35075
G1 X137.696 Y41.070 E0.01677
G1 X146.130 Y49.504 E0.37446
G1 X146.130 Y50.038 E0.01677
G1 X137.162 Y41.070 E0.39817
G1 X136.628 Y41.070 E0.01677
G1 X146.130 Y50.572 E0.42188
G1 X146.130 Y51.106 E0.01677
G1 X136.094 Y41.070 E0.44559
G1 X135.560 Y41.070 E0.01677
G1 X146.130 Y51.640 E0.46930
G1 X146.130 Y52.173 E0.01677
G1 X135.027 Y41.070 E0.49301
G1 X134.493 Y41.070 E0.01677
G1 X146.130 Y52.707 E0.51672
G1 X146.130 Y53.241 E0.01677
G1 X133.959 Y41.070 E0.54043
G1 X133.425 Y41.070 E0.01677
G1 X146.130 Y53.775 E0.56414
G1 X146.130 Y54.309 E0.01677
G1 X132.891 Y41.070 E0.58785
G1 X132.357 Y41.070 E0.01677
G1 X146.130 Y54.843 E0.61156
G1 X146.130 Y55.377 E0.01677
G1 X131.823 Y41.070 E0.63527
G1 X131.289 Y41.070 E0.01677
G1 X146.130 Y55.911 E0.65898
G1 X146.130 Y56.445 E0.01677
G1 X130.755 Y41.070 E0.68269
G1 X130.221 Y41.070 E0.01677
G1 X146.130 Y56.979 E0.70639
G1 X146.130 Y57.513 E0.01677
G1 X129.687 Y41.070 E0.73010
G1 X129.153 Y41.070 E0.01677
G1 X146.130 Y58.047 E0.75381
G1 X146.130 Y58.581 E0.01677
G1 X128.619 Y41.070 E0.77752
G1 X128.085 Y41.070 E0.01677
G1 X146.130 Y59.115 E0.80123
G1 X146.130 Y59.649 E0.01677
G1 X127.551 Y41.070 E0.82494
G1 X127.017 Y41.070 E0.01677
G1 X146.130 Y60.183 E0.84865
G1 X146.130 Y60.717 E0.01677
G1 X126.483 Y41.070 E0.87236
G1 X125.949 Y41.070 E0.01677
G1 X146.130 Y61.251 E0.89607
G1 X146.130 Y61.785 E0.01677
G1 X125.415 Y41.070 E0.91978
G1 X124.881 Y41.070 E0.01676
G1 X146.130 Y62.319 E0.94349
G1 X146.130 Y62.853 E0.01677
G1 X124.347 Y41.070 E0.96720
G1 X123.813 Y41.070 E0.01677
G1 X146.130 Y63.387 E0.99091
G1 X146.130 Y63.921 E0.01677
G1 X123.279 Y41.070 E1.01462
G1 X122.745 Y41.070 E0.01677
G1 X146.130 Y64.455 E1.03832
G1 X146.130 Y64.989 E0.01677
G1 X122.211 Y41.070 E1.06203
G1 X121.677 Y41.070 E0.01677
G1 X146.130 Y65.523 E1.08574
G1 X146.130 Y66.057 E0.01677
G1 X121.143 Y41.070 E1.10945
G1 X120.609 Y41.070 E0.01677
G1 X146.130 Y66.591 E1.13316
G1 X146.130 Y67.125 E0.01677
G1 X120.075 Y41.070 E1.15687
G1 X119.541 Y41.070 E0.01677
G1 X146.130 Y67.659 E1.18058
G1 X146.130 Y68.193 E0.01677
G1 X119.007 Y41.070 E1.20429
G1 X118.473 Y41.070 E0.01677
G1 X146.130 Y68.727 E1.22800
G1 X146.130 Y69.261 E0.01677
G1 X117.939 Y41.070 E1.25171
G1 X117.405 Y41.070 E0.01677
G1 X146.130 Y69.795 E1.27542
G1 X146.130 Y70.329 E0.01677
G1 X116.871 Y41.070 E1.29913
G1 X116.337 Y41.070 E0.01677
G1 X146.130 Y70.863 E1.32284
G1 X146.130 Y71.397 E0.01677
G1 X115.803 Y41.070 E1.34655
M73 Q0 S252
M73 P0 R251
G1 X115.269 Y41.070 E0.01677
G1 X146.130 Y71.931 E1.37026
G1 X146.130 Y72.465 E0.01677
G1 X114.735 Y41.070 E1.39396
G1 X114.201 Y41.070 E0.01677
G1 X146.130 Y72.999 E1.41767
G1 X146.130 Y73.533 E0.01677
G1 X113.667 Y41.070 E1.44138
G1 X113.133 Y41.070 E0.01677
G1 X146.130 Y74.067 E1.46509
G1 X146.130 Y74.601 E0.01677
G1 X112.599 Y41.070 E1.48880
G1 X112.065 Y41.070 E0.01677
G1 X146.130 Y75.135 E1.51251
G1 X146.130 Y75.669 E0.01677
G1 X111.531 Y41.070 E1.53622
G1 X110.997 Y41.070 E0.01677
G1 X146.130 Y76.203 E1.55993
G1 X146.130 Y76.737 E0.01677
G1 X110.463 Y41.070 E1.58364
G1 X109.929 Y41.070 E0.01677
G1 X146.130 Y77.271 E1.60735
G1 X146.130 Y77.805 E0.01677
G1 X109.395 Y41.070 E1.63106
G1 X108.861 Y41.070 E0.01677
G1 X146.130 Y78.339 E1.65477
G1 X146.130 Y78.873 E0.01677
G1 X108.327 Y41.070 E1.67848
G1 X107.793 Y41.070 E0.01677
G1 X146.130 Y79.407 E1.70219
G1 X146.130 Y79.941 E0.01677
G1 X107.259 Y41.070 E1.72589
G1 X106.725 Y41.070 E0.01677
G1 X146.130 Y80.475 E1.74960
G1 X146.130 Y81.009 E0.01677
G1 X106.191 Y41.070 E1.77331
G1 X105.657 Y41.070 E0.01677
G1 X146.130 Y81.543 E1.79702
G1 X146.130 Y82.077 E0.01677
G1 X105.123 Y41.070 E1.82073
G1 X104.589 Y41.070 E0.01677
G1 X146.130 Y82.611 E1.84444
G1 X146.130 Y83.145 E0.01677
G1 X104.055 Y41.070 E1.86815
G1 X103.870 Y41.070 E0.00583
G1 X103.870 Y41.418 E0.01094
G1 X146.130 Y83.678 E1.87639
M73 Q1 S251
M73 P1 R250
G1 X146.130 Y84.212 E0.01677
G1 X103.870 Y41.952 E1.87639
G1 X103.870 Y42.486 E0.01677
G1 X146.130 Y84.746 E1.87639
G1 X146.130 Y85.280 E0.01677
G1 X103.870 Y43.020 E1.87639
G1 X103.870 Y43.554 E0.01677
G1 X146.130 Y85.814 E1.87639
G1 X146.130 Y86.348 E0.01677
G1 X103.870 Y44.088 E1.87639
G1 X103.870 Y44.622 E0.01677
G1 X146.130 Y86.882 E1.87639
G1 X146.130 Y87.416 E0.01677
G1 X103.870 Y45.156 E1.87639
G1 X103.870 Y45.690 E0.01677
G1 X146.130 Y87.950 E1.87639
G1 X146.130 Y88.484 E0.01677
G1 X103.870 Y46.224 E1.87639
G1 X103.870 Y46.758 E0.01677
G1 X146.130 Y89.018 E1.87639
G1 X146.130 Y89.552 E0.01677
G1 X103.870 Y47.292 E1.87639
G1 X103.870 Y47.826 E0.01677
G1 X146.130 Y90.086 E1.87639
G1 X146.130 Y90.620 E0.01677
G1 X103.870 Y48.360 E1.87639
G1 X103.870 Y48.894 E0.01677
G1 X146.130 Y91.154 E1.87639
G1 X146.130 Y91.688 E0.01677
G1 X103.870 Y49.428 E1.87639
G1 X103.870 Y49.962 E0.01677
G1 X146.130 Y92.222 E1.87639
G1 X146.130 Y92.756 E0.01677
G1 X103.870 Y50.496 E1.87639
G1 X103.870 Y51.030 E0.01677
G1 X146.130 Y93.290 E1.87639
G1 X146.130 Y93.824 E0.01677
G1 X103.870 Y51.564 E1.87639
G1 X103.870 Y52.098 E0.01677
G1 X146.130 Y94.358 E1.87639
M73 Q1 S250
M73 P1 R249
G1 X146.130 Y94.892 E0.01677
G1 X103.870 Y52.632 E1.87639
G1 X103.870 Y53.166 E0.01677
G1 X146.130 Y95.426 E1.87639
G1 X146.130 Y95.960 E0.01677
G1 X103.870 Y53.700 E1.87639
G1 X103.870 Y54.234 E0.01677
G1 X146.130 Y96.494 E1.87639
G1 X146.130 Y97.028 E0.01677
G1 X103.870 Y54.768 E1.87639
G1 X103.870 Y55.302 E0.01677
G1 X146.130 Y97.562 E1.87639
G1 X146.130 Y98.096 E0.01677
G1 X103.870 Y55.836 E1.87639
G1 X103.870 Y56.370 E0.01677
G1 X146.130 Y98.630 E1.87639
G1 X146.130 Y99.164 E0.01677
G1 X103.870 Y56.904 E1.87639
G1 X103.870 Y57.438 E0.01677
G1 X146.130 Y99.698 E1.87639
G1 X146.130 Y100.232 E0.01677
G1 X103.870 Y57.972 E1.87639
G1 X103.870 Y58.506 E0.01677
G1 X146.130 Y100.766 E1.87639
G1 X146.130 Y101.300 E0.01677
G1 X103.870 Y59.040 E1.87639
G1 X103.870 Y59.574 E0.01677
G1 X146.130 Y101.834 E1.87639
G1 X146.130 Y102.368 E0.01677
G1 X103.870 Y60.108 E1.87639
G1 X103.870 Y60.642 E0.01677
G1 X146.130 Y102.902 E1.87639
G1 X146.130 Y103.436 E0.01677
G1 X103.870 Y61.176 E1.87639
G1 X103.870 Y61.710 E0.01677
G1 X146.130 Y103.970 E1.87639
G1 X146.130 Y104.504 E0.01677
G1 X103.870 Y62.244 E1.87639
G1 X103.870 Y62.778 E0.01677
G1 X146.130 Y105.038 E1.87639
M73 Q2 S249
M73 P2 R248
G1 X146.130 Y105.572 E0.01677
G1 X103.870 Y63.312 E1.87639
G1 X103.870 Y63.846 E0.01677
G1 X146.130 Y106.106 E1.87639
G1 X146.130 Y106.640 E0.01677
G1 X103.870 Y64.379 E1.87639
G1 X103.870 Y64.913 E0.01677
G1 X146.130 Y107.174 E1.87639
G1 X146.130 Y107.708 E0.01677
G1 X103.870 Y65.447 E1.87639
G1 X103.870 Y65.981 E0.01677
G1 X146.130 Y108.242 E1.87639
G1 X146.130 Y108.776 E0.01677
G1 X103.870 Y66.515 E1.87639
G1 X103.870 Y67.049 E0.01677
G1 X146.130 Y109.310 E1.87639
G1 X146.130 Y109.844 E0.01677
G1 X103.870 Y67.583 E1.87639
G1 X103.870 Y68.117 E0.01677
G1 X146.130 Y110.378 E1.87639
G1 X146.130 Y110.912 E0.01677
G1 X103.870 Y68.651 E1.87639
G1 X103.870 Y69.185 E0.01677
G1 X146.130 Y111.446 E1.87639
G1 X146.130 Y111.980 E0.01677
G1 X103.870 Y69.719 E1.87639
G1 X103.870 Y70.253 E0.01677
G1 X146.130 Y112.514 E1.87639
G1 X146.130 Y113.048 E0.01677
G1 X103.870 Y70.787 E1.87639
G1 X103.870 Y71.321 E0.01677
G1 X146.130 Y113.582 E1.87639
G1 X146.130 Y114.116 E0.01677
G1 X103.870 Y71.855 E1.87639
G1 X103.870 Y72.389 E0.01677
G1 X146.130 Y114.650 E1.87639
G1 X146.130 Y115.183 E0.01677
G1 X103.870 Y72.923 E1.87639
G1 X103.870 Y73.457 E0.01677
G1 X146.130 Y115.717 E1.87639
M73 Q2 S248
M73 P2 R247
G1 X146.130 Y116.251 E0.01677
G1 X103.870 Y73.991 E1.87639
G1 X103.870 Y74.525 E0.01677
G1 X146.130 Y116.785 E1.87639
G1 X146.130 Y117.319 E0.01677
G1 X103.870 Y75.059 E1.87639
G1 X103.870 Y75.593 E0.01677
G1 X146.130 Y117.853 E1.87639
G1 X146.130 Y118.387 E0.01677
G1 X103.870 Y76.127 E1.87639
G1 X103.870 Y76.661 E0.01677
G1 X146.130 Y118.921 E1.87639
G1 X146.130 Y119.455 E0.01677
G1 X103.870 Y77.195 E1.87639
G1 X103.870 Y77.729 E0.01677
G1 X146.130 Y119.989 E1.87639
G1 X146.130 Y120.523 E0.01677
G1 X103.870 Y78.263 E1.87639
G1 X103.870 Y78.797 E0.01677
G1 X146.130 Y121.057 E1.87639
G1 X146.130 Y121.591 E0.01677
G1 X103.870 Y79.331 E1.87639
G1 X103.870 Y79.865 E0.01677
G1 X146.130 Y122.125 E1.87639
G1 X146.130 Y122.659 E0.01677
G1 X103.870 Y80.399 E1.87639
G1 X103.870 Y80.933 E0.01677
G1 X146.130 Y123.193 E1.87639
G1 X146.130 Y123.727 E0.01677
G1 X103.870 Y81.467 E1.87639
G1 X103.870 Y82.001 E0.01677
G1 X146.130 Y124.261 E1.87639
G1 X146.130 Y124.795 E0.01677
G1 X103.870 Y82.535 E1.87639
G1 X103.870 Y83.069 E0.01677
G1 X146.130 Y125.329 E1.87639
G1 X146.130 Y125.863 E0.01677
G1 X103.870 Y83.603 E1.87639
G1 X103.870 Y84.137 E0.01677
G1 X146.130 Y126.397 E1.87639
M73 Q2 S247
M73 P2 R246
G1 X146.130 Y126.931 E0.01677
G1 X103.870 Y84.671 E1.87639
G1 X103.870 Y85.205 E0.01677
G1 X146.130 Y127.465 E1.87639
G1 X146.130 Y127.999 E0.01677
G1 X103.870 Y85.739 E1.87639
G1 X103.870 Y86.273 E0.01677
G1 X146.130 Y128.533 E1.87639
G1 X146.130 Y129.067 E0.01677
G1 X103.870 Y86.807 E1.87639
G1 X103.870 Y87.341 E0.01677
G1 X146.130 Y129.601 E1.87639
G1 X146.130 Y130.135 E0.01677
G1 X103.870 Y87.875 E1.87639
G1 X103.870 Y88.409 E0.01677
G1 X146.130 Y130.669 E1.87639
G1 X146.130 Y131.203 E0.01677
G1 X103.870 Y88.943 E1.87639
G1 X103.870 Y89.477 E0.01677
G1 X146.130 Y131.737 E1.87639
G1 X146.130 Y132.271 E0.01677
G1 X103.870 Y90.011 E1.87639
G1 X103.870 Y90.545 E0.01677
G1 X146.130 Y132.805 E1.87639
G1 X146.130 Y133.339 E0.01677
G1 X103.870 Y91.079 E1.87639
G1 X103.870 Y91.613 E0.01677
G1 X146.130 Y133.873 E1.87639
G1 X146.130 Y134.407 E0.01677
G1 X103.870 Y92.147 E1.87639
G1 X103.870 Y92.681 E0.01677
G1 X146.130 Y134.941 E1.87639
G1 X146.130 Y135.475 E0.01677
G1 X103.870 Y93.215 E1.87639
G1 X103.870 Y93.749 E0.01677
G1 X146.130 Y136.009 E1.87639
G1 X146.130 Y136.543 E0.01677
G1 X103.870 Y94.283 E1.87639
G1 X103.870 Y94.817 E0.01677
G1 X146.130 Y137.077 E1.87639
M73 Q3 S246
M73 P3 R245
G1 X146.130 Y137.611 E0.01677
G1 X103.870 Y95.351 E1.87639
G1 X103.870 Y95.884 E0.01677
G1 X146.130 Y138.145 E1.87639
G1 X146.130 Y138.679 E0.01677
G1 X103.870 Y96.418 E1.87639
G1 X103.870 Y96.952 E0.01677
G1 X146.130 Y139.213 E1.87639
G1 X146.130 Y139.747 E0.01677
G1 X103.870 Y97.486 E1.87639
G1 X103.870 Y98.020 E0.01677
G1 X146.130 Y140.281 E1.87639
G1 X146.130 Y140.815 E0.01677
G1 X103.870 Y98.554 E1.87639
G1 X103.870 Y99.088 E0.01677
G1 X146.130 Y141.349 E1.87639
G1 X146.130 Y141.883 E0.01677
G1 X103.870 Y99.622 E1.87639
G1 X103.870 Y100.156 E0.01677
G1 X146.130 Y142.417 E1.87639
G1 X146.130 Y142.951 E0.01677
G1 X103.870 Y100.690 E1.87639
G1 X103.870 Y101.224 E0.01677
G1 X146.130 Y143.485 E1.87639
G1 X146.130 Y144.019 E0.01677
G1 X103.870 Y101.758 E1.87639
G1 X103.870 Y102.292 E0.01677
G1 X146.130 Y144.553 E1.87639
G1 X146.130 Y145.087 E0.01677
G1 X103.870 Y102.826 E1.87639
G1 X103.870 Y103.360 E0.01677
G1 X146.130 Y145.621 E1.87639
G1 X146.130 Y146.154 E0.01677
G1 X103.870 Y103.894 E1.87639
G1 X103.870 Y104.428 E0.01677
G1 X146.130 Y146.688 E1.87639
G1 X146.130 Y147.222 E0.01677
G1 X103.870 Y104.962 E1.87639
G1 X103.870 Y105.496 E0.01677
G1 X146.130 Y147.756 E1.87639
M73 Q3 S245
M73 P3 R244
G1 X146.130 Y148.290 E0.01677
G1 X103.870 Y106.030 E1.87639
G1 X103.870 Y106.564 E0.01677
G1 X146.130 Y148.824 E1.87639
G1 X146.130 Y149.358 E0.01677
G1 X103.870 Y107.098 E1.87639
G1 X103.870 Y107.632 E0.01677
G1 X146.130 Y149.892 E1.87639
G1 X146.130 Y150.426 E0.01677
G1 X103.870 Y108.166 E1.87639
G1 X103.870 Y108.700 E0.01677
G1 X146.130 Y150.960 E1.87639
G1 X146.130 Y151.494 E0.01677
G1 X103.870 Y109.234 E1.87639
G1 X103.870 Y109.768 E0.01677
G1 X146.130 Y152.028 E1.87639
G1 X146.130 Y152.562 E0.01677
G1 X103.870 Y110.302 E1.87639
G1 X103.870 Y110.836 E0.01677
G1 X146.130 Y153.096 E1.87639
G1 X146.130 Y153.630 E0.01677
G1 X103.870 Y111.370 E1.87639
G1 X103.870 Y111.904 E0.01677
G1 X146.130 Y154.164 E1.87639
G1 X146.130 Y154.698 E0.01677
G1 X103.870 Y112.438 E1.87639
G1 X103.870 Y112.972 E0.01677
G1 X146.130 Y155.232 E1.87639
G1 X146.130 Y155.766 E0.01677
G1 X103.870 Y113.506 E1.87639
G1 X103.870 Y114.040 E0.01677
G1 X146.130 Y156.300 E1.87639
G1 X146.130 Y156.834 E0.01677
G1 X103.870 Y114.574 E1.87639
G1 X103.870 Y115.108 E0.01677
G1 X146.130 Y157.368 E1.87639
G1 X146.130 Y157.902 E0.01677
G1 X103.870 Y115.642 E1.87639
G1 X103.870 Y116.176 E0.01677
G1 X146.130 Y158.436 E1.87639
M73 Q4 S244
M73 P4 R243
