; generated by PrusaSlicer 2.1.0+ on 2020-02-19 at 05:03:40 UTC

; 

; external perimeters extrusion width = 0.45mm
; perimeters extrusion width = 0.45mm
; infill extrusion width = 0.45mm
; solid infill extrusion width = 0.45mm
; top infill extrusion width = 0.40mm
; first layer extrusion width = 0.42mm

M73 P0 R112
M73 Q0 S112
M201 X1000 Y1000 Z1000 E5000 ; sets maximum accelerations, mm/sec^2
M203 X200 Y200 Z12 E120 ; sets maximum feedrates, mm/sec
M204 P1250 R1250 T1250 ; sets acceleration (P, T) and retract acceleration (R), mm/sec^2
M205 X8.00 Y8.00 Z0.40 E1.50 ; sets the jerk limits, mm/sec
M205 S0 T0 ; sets the minimum extruding and travel feed rate, mm/sec
M107
M115 U3.8.0 ; tell printer latest fw version
G90 ; use absolute coordinates
M83 ; extruder relative mode
M104 S215 ; set extruder temp
M140 S65 ; set bed temp
M190 S65 ; wait for bed temp
M109 S215 ; wait for extruder temp
G28 W ; home all without mesh bed level
G80 ; mesh bed leveling
G1 Y-3.0 F1000.0 ; go outside print area
G92 E0.0
G1 X60.0 E9.0 F1000.0 ; intro line
M73 Q0 S112
M73 P0 R112
G1 X100.0 E12.5 F1000.0 ; intro line
G92 E0.0
M221 S95
G21 ; set units to millimeters
G90 ; use absolute coordinates
M83 ; use relative distances for extrusion
M900 K30 ; Filament gcode
;BEFORE_LAYER_CHANGE
G92 E0.0
;0.2


G1 E-0.80000 F2100.00000
G1 Z0.600 F10800.000
;AFTER_LAYER_CHANGE
;0.2
G1 X102.280 Y81.739
G1 Z0.200
G1 E0.80000 F2100.00000
M204 S1000
G1 F1200
G1 X102.976 Y81.618 E0.02213
G1 X147.004 Y81.618 E1.38046
G1 X147.820 Y81.777 E0.02608
G1 X148.521 Y82.232 E0.02620
G1 X148.998 Y82.913 E0.02608
G1 X149.187 Y83.724 E0.02608
G1 X149.188 Y115.861 E1.00765
G1 X149.122 Y116.342 E0.01521
G1 X148.954 Y116.793 E0.01510
G1 X148.688 Y117.199 E0.01521
G1 X148.343 Y117.534 E0.01510
G1 X136.384 Y125.431 E0.44933
G1 X132.192 Y127.317 E0.14414
G1 X127.389 Y128.369 E0.15416
G1 X122.839 Y128.382 E0.14266
G1 X118.005 Y127.390 E0.15472
G1 X113.738 Y125.500 E0.14632
G1 X101.782 Y117.625 E0.44888
G1 X101.271 Y117.148 E0.02191
G1 X100.934 Y116.528 E0.02213
G1 X100.812 Y115.837 E0.02202
G1 X100.812 Y83.781 E1.00509
G1 X100.872 Y83.296 E0.01532
G1 X101.040 Y82.833 E0.01544
G1 X101.305 Y82.422 E0.01532
G1 X101.657 Y82.078 E0.01544
G1 X102.228 Y81.768 E0.02037
G1 F8640
G1 X102.976 Y81.618 E-0.17619
G1 X105.504 Y81.618 E-0.58381
G1 E-0.04000 F2100.00000
G1 Z0.800 F10800.000
G1 X103.587 Y84.393
G1 Z0.200
G1 E0.80000 F2100.00000
G1 F1200
G1 X146.413 Y84.393 E1.34277
G1 X146.413 Y115.219 E0.96652
G1 X142.429 Y115.219 E0.12490
G1 X141.107 Y117.509 E0.08290
G1 X138.322 Y120.602 E0.13050
G1 X134.955 Y123.048 E0.13050
G1 X131.152 Y124.741 E0.13051
G1 X127.081 Y125.607 E0.13050
G1 X122.919 Y125.607 E0.13050
G1 X118.848 Y124.741 E0.13050
G1 X115.045 Y123.048 E0.13051
G1 X111.678 Y120.602 E0.13050
G1 X108.893 Y117.509 E0.13050
G1 X107.571 Y115.219 E0.08290
G1 X103.587 Y115.219 E0.12490
G1 X103.587 Y84.453 E0.96464
G1 F8640
G1 X106.879 Y84.449 E-0.76000
G1 E-0.04000 F2100.00000
G1 Z0.800 F10800.000
G1 X142.647 Y115.596
G1 Z0.200
G1 E0.80000 F2100.00000
G1 F1200
G1 X141.414 Y117.732 E0.07732
G1 X138.576 Y120.884 E0.13299
G1 X135.144 Y123.377 E0.13299
G1 X131.270 Y125.102 E0.13299
G1 X127.121 Y125.984 E0.13299
G1 X122.879 Y125.984 E0.13299
G1 X118.730 Y125.102 E0.13299
G1 X114.856 Y123.377 E0.13299
G1 X111.424 Y120.884 E0.13299
G1 X108.586 Y117.732 E0.13299
G1 X107.353 Y115.596 E0.07732
G1 X103.210 Y115.596 E0.12990
G1 X103.210 Y84.016 E0.99017
G1 X146.790 Y84.016 E1.36642
G1 X146.790 Y115.596 E0.99017
G1 X142.707 Y115.596 E0.12802
G1 X142.250 Y115.648 F10800.000
G1 F8640
G1 X141.414 Y117.732 E-0.57643
G1 X140.882 Y118.322 E-0.18357
G1 E-0.04000 F2100.00000
G1 Z0.800 F10800.000
G1 X114.667 Y122.634
G1 Z0.200
G1 E0.80000 F2100.00000
G1 F1200
G1 X108.315 Y116.282 E0.28247
G1 F8640
G1 X110.642 Y118.609 E-0.76000
G1 E-0.04000 F2100.00000
G1 Z0.800 F10800.000
G1 X109.389 Y117.890
G1 Z0.200
G1 E0.80000 F2100.00000
G1 F1200
G1 X112.711 Y121.213 E0.14776
G1 F8640
G1 X110.384 Y118.885 E-0.76000
G1 E-0.04000 F2100.00000
G1 Z0.800 F10800.000
G1 X103.700 Y114.341
G1 Z0.200
G1 E0.80000 F2100.00000
G1 F1200
G1 X104.295 Y114.936 E0.02646
G1 X104.830 Y114.936 E0.01682
G1 X103.870 Y113.976 E0.04270
G1 X103.870 Y113.441 E0.01682
G1 X105.365 Y114.936 E0.06648
G1 X105.900 Y114.936 E0.01682
G1 X103.870 Y112.907 E0.09027
G1 X103.870 Y112.372 E0.01682
G1 X106.434 Y114.936 E0.11406
G1 X106.969 Y114.936 E0.01682
G1 X103.870 Y111.837 E0.13784
G1 X103.870 Y111.302 E0.01682
G1 X115.517 Y122.949 E0.51797
G1 X116.481 Y123.378 E0.03319
G1 X103.870 Y110.767 E0.56085
G1 X103.870 Y110.232 E0.01682
G1 X117.445 Y123.807 E0.60373
G1 X118.409 Y124.237 E0.03319
G1 X103.870 Y109.697 E0.64660
G1 X103.870 Y109.163 E0.01682
G1 X119.244 Y124.537 E0.68373
G1 X119.923 Y124.681 E0.02184
G1 X103.870 Y108.628 E0.71393
G1 X103.870 Y108.093 E0.01682
G1 X120.602 Y124.825 E0.74414
G1 X121.281 Y124.970 E0.02184
G1 X103.870 Y107.558 E0.77435
G1 X103.870 Y107.023 E0.01682
G1 X121.961 Y125.114 E0.80455
G1 X122.640 Y125.258 E0.02184
G1 X103.870 Y106.488 E0.83476
G1 X103.870 Y105.953 E0.01682
G1 X123.240 Y125.324 E0.86147
G1 X123.775 Y125.324 E0.01682
G1 X103.870 Y105.419 E0.88525
G1 X103.870 Y104.884 E0.01682
G1 X124.310 Y125.324 E0.90904
G1 X124.845 Y125.324 E0.01682
G1 X103.870 Y104.349 E0.93283
G1 X103.870 Y103.814 E0.01682
G1 X125.380 Y125.324 E0.95661
G1 X125.915 Y125.324 E0.01682
G1 X103.870 Y103.279 E0.98040
G1 X103.870 Y102.744 E0.01682
G1 X126.449 Y125.324 E1.00418
G1 X126.984 Y125.324 E0.01682
G1 X103.870 Y102.210 E1.02797
G1 X103.870 Y101.675 E0.01682
G1 X127.437 Y125.242 E1.04811
G1 X127.878 Y125.148 E0.01418
G1 X103.870 Y101.140 E1.06773
G1 X103.870 Y100.605 E0.01682
G1 X128.319 Y125.054 E1.08735
M73 Q0 S111
M73 P0 R111
G1 X128.760 Y124.961 E0.01418
G1 X103.870 Y100.070 E1.10696
G1 X103.870 Y99.535 E0.01682
G1 X129.202 Y124.867 E1.12658
G1 X129.643 Y124.773 E0.01418
G1 X103.870 Y99.000 E1.14620
G1 X103.870 Y98.466 E0.01682
G1 X130.084 Y124.679 E1.16581
G1 X130.525 Y124.586 E0.01418
G1 X103.870 Y97.931 E1.18543
G1 X103.870 Y97.396 E0.01682
G1 X130.966 Y124.492 E1.20505
G1 X131.065 Y124.471 E0.00317
G1 X131.352 Y124.343 E0.00989
G1 X103.870 Y96.861 E1.22221
G1 X103.870 Y96.326 E0.01682
G1 X131.722 Y124.178 E1.23867
G1 X132.092 Y124.014 E0.01274
G1 X103.870 Y95.791 E1.25513
G1 X103.870 Y95.256 E0.01682
G1 X132.462 Y123.849 E1.27159
G1 X132.832 Y123.684 E0.01274
G1 X103.870 Y94.722 E1.28805
G1 X103.870 Y94.187 E0.01682
G1 X133.202 Y123.519 E1.30450
G1 X133.572 Y123.354 E0.01274
G1 X103.870 Y93.652 E1.32096
G1 X103.870 Y93.117 E0.01682
G1 X133.942 Y123.190 E1.33742
G1 X134.313 Y123.025 E0.01274
G1 X103.870 Y92.582 E1.35388
G1 X103.870 Y92.047 E0.01682
G1 X134.683 Y122.860 E1.37034
G1 X134.813 Y122.802 E0.00448
G1 X135.014 Y122.656 E0.00781
G1 X103.870 Y91.512 E1.38506
G1 X103.870 Y90.978 E0.01682
G1 X135.323 Y122.431 E1.39883
G1 X135.633 Y122.206 E0.01204
G1 X103.870 Y90.443 E1.41261
G1 X103.870 Y89.908 E0.01682
G1 X135.943 Y121.981 E1.42639
G1 X136.253 Y121.756 E0.01204
G1 X103.870 Y89.373 E1.44017
G1 X103.870 Y88.838 E0.01682
G1 X136.563 Y121.531 E1.45394
G1 X136.872 Y121.306 E0.01204
G1 X103.870 Y88.303 E1.46772
G1 X103.870 Y87.769 E0.01682
G1 X137.182 Y121.081 E1.48150
G1 X137.492 Y120.856 E0.01204
G1 X103.870 Y87.234 E1.49527
G1 X103.870 Y86.699 E0.01682
G1 X137.802 Y120.631 E1.50905
G1 X138.111 Y120.406 E0.01204
G1 X103.870 Y86.164 E1.52283
G1 X103.870 Y85.629 E0.01682
G1 X138.369 Y120.128 E1.53426
M73 Q1 S110
M73 P1 R110
G1 X138.622 Y119.846 E0.01191
G1 X103.870 Y85.094 E1.54553
G1 X103.870 Y84.676 E0.01315
G1 X103.986 Y84.676 E0.00367
G1 X138.875 Y119.565 E1.55162
G1 X139.129 Y119.283 E0.01191
G1 X104.521 Y84.676 E1.53910
G1 X105.056 Y84.676 E0.01682
G1 X139.382 Y119.002 E1.52658
G1 X139.636 Y118.721 E0.01191
G1 X105.591 Y84.676 E1.51407
G1 X106.126 Y84.676 E0.01682
G1 X139.889 Y118.439 E1.50155
G1 X140.142 Y118.158 E0.01191
G1 X106.661 Y84.676 E1.48903
G1 X107.196 Y84.676 E0.01682
G1 X140.396 Y117.876 E1.47652
G1 X140.649 Y117.595 E0.01191
G1 X107.730 Y84.676 E1.46400
G1 X108.265 Y84.676 E0.01682
G1 X140.897 Y117.308 E1.45123
G1 X141.093 Y116.969 E0.01231
G1 X108.800 Y84.676 E1.43615
G1 X109.335 Y84.676 E0.01682
G1 X141.288 Y116.629 E1.42107
G1 X141.484 Y116.290 E0.01231
G1 X109.870 Y84.676 E1.40599
G1 X110.405 Y84.676 E0.01682
G1 X141.680 Y115.951 E1.39091
G1 X141.876 Y115.612 E0.01231
G1 X110.940 Y84.676 E1.37583
G1 X111.474 Y84.676 E0.01682
G1 X142.072 Y115.273 E1.36075
G1 X142.269 Y114.936 E0.01229
G1 X112.009 Y84.676 E1.34577
G1 X112.544 Y84.676 E0.01682
G1 X142.804 Y114.936 E1.34577
G1 X143.339 Y114.936 E0.01682
G1 X113.079 Y84.676 E1.34577
G1 X113.614 Y84.676 E0.01682
G1 X143.874 Y114.936 E1.34577
G1 X144.409 Y114.936 E0.01682
G1 X114.149 Y84.676 E1.34577
G1 X114.683 Y84.676 E0.01682
G1 X144.944 Y114.936 E1.34577
G1 X145.479 Y114.936 E0.01682
G1 X115.218 Y84.676 E1.34577
G1 X115.753 Y84.676 E0.01682
G1 X146.013 Y114.936 E1.34577
G1 X146.130 Y114.936 E0.00367
G1 X146.130 Y114.518 E0.01315
G1 X116.288 Y84.676 E1.32717
G1 X116.823 Y84.676 E0.01682
G1 X146.130 Y113.983 E1.30338
G1 X146.130 Y113.448 E0.01682
G1 X117.358 Y84.676 E1.27960
M73 Q2 S109
M73 P2 R109
G1 X117.893 Y84.676 E0.01682
G1 X146.130 Y112.914 E1.25581
G1 X146.130 Y112.379 E0.01682
G1 X118.427 Y84.676 E1.23202
G1 X118.962 Y84.676 E0.01682
G1 X146.130 Y111.844 E1.20824
G1 X146.130 Y111.309 E0.01682
G1 X119.497 Y84.676 E1.18445
G1 X120.032 Y84.676 E0.01682
G1 X146.130 Y110.774 E1.16066
G1 X146.130 Y110.239 E0.01682
G1 X120.567 Y84.676 E1.13688
G1 X121.102 Y84.676 E0.01682
G1 X146.130 Y109.704 E1.11309
G1 X146.130 Y109.170 E0.01682
G1 X121.637 Y84.676 E1.08930
G1 X122.171 Y84.676 E0.01682
G1 X146.130 Y108.635 E1.06552
G1 X146.130 Y108.100 E0.01682
G1 X122.706 Y84.676 E1.04173
G1 X123.241 Y84.676 E0.01682
G1 X146.130 Y107.565 E1.01795
G1 X146.130 Y107.030 E0.01682
G1 X123.776 Y84.676 E0.99416
G1 X124.311 Y84.676 E0.01682
G1 X146.130 Y106.495 E0.97037
G1 X146.130 Y105.960 E0.01682
G1 X124.846 Y84.676 E0.94659
G1 X125.381 Y84.676 E0.01682
G1 X146.130 Y105.426 E0.92280
G1 X146.130 Y104.891 E0.01682
G1 X125.915 Y84.676 E0.89901
G1 X126.450 Y84.676 E0.01682
G1 X146.130 Y104.356 E0.87523
G1 X146.130 Y103.821 E0.01682
G1 X126.985 Y84.676 E0.85144
G1 X127.520 Y84.676 E0.01682
G1 X146.130 Y103.286 E0.82765
G1 X146.130 Y102.751 E0.01682
G1 X128.055 Y84.676 E0.80387
G1 X128.590 Y84.676 E0.01682
G1 X146.130 Y102.217 E0.78008
G1 X146.130 Y101.682 E0.01682
G1 X129.124 Y84.676 E0.75629
G1 X129.659 Y84.676 E0.01682
G1 X146.130 Y101.147 E0.73251
G1 X146.130 Y100.612 E0.01682
G1 X130.194 Y84.676 E0.70872
G1 X130.729 Y84.676 E0.01682
G1 X146.130 Y100.077 E0.68493
G1 X146.130 Y99.542 E0.01682
G1 X131.264 Y84.676 E0.66115
G1 X131.799 Y84.676 E0.01682
G1 X146.130 Y99.007 E0.63736
G1 X146.130 Y98.473 E0.01682
G1 X132.334 Y84.676 E0.61358
G1 X132.868 Y84.676 E0.01682
G1 X146.130 Y97.938 E0.58979
G1 X146.130 Y97.403 E0.01682
G1 X133.403 Y84.676 E0.56600
G1 X133.938 Y84.676 E0.01682
G1 X146.130 Y96.868 E0.54222
G1 X146.130 Y96.333 E0.01682
G1 X134.473 Y84.676 E0.51843
G1 X135.008 Y84.676 E0.01682
G1 X146.130 Y95.798 E0.49464
G1 X146.130 Y95.263 E0.01682
G1 X135.543 Y84.676 E0.47086
G1 X136.078 Y84.676 E0.01682
G1 X146.130 Y94.729 E0.44707
G1 X146.130 Y94.194 E0.01682
G1 X136.612 Y84.676 E0.42328
G1 X137.147 Y84.676 E0.01682
G1 X146.130 Y93.659 E0.39950
G1 X146.130 Y93.124 E0.01682
G1 X137.682 Y84.676 E0.37571
G1 X138.217 Y84.676 E0.01682
G1 X146.130 Y92.589 E0.35192
G1 X146.130 Y92.054 E0.01682
G1 X138.752 Y84.676 E0.32814
G1 X139.287 Y84.676 E0.01682
G1 X146.130 Y91.520 E0.30435
G1 X146.130 Y90.985 E0.01682
G1 X139.821 Y84.676 E0.28056
G1 X140.356 Y84.676 E0.01682
G1 X146.130 Y90.450 E0.25678
G1 X146.130 Y89.915 E0.01682
G1 X140.891 Y84.676 E0.23299
G1 X141.426 Y84.676 E0.01682
G1 X146.130 Y89.380 E0.20920
G1 X146.130 Y88.845 E0.01682
G1 X141.961 Y84.676 E0.18542
G1 X142.496 Y84.676 E0.01682
G1 X146.130 Y88.310 E0.16163
G1 X146.130 Y87.776 E0.01682
G1 X143.031 Y84.676 E0.13785
G1 X143.565 Y84.676 E0.01682
G1 X146.130 Y87.241 E0.11406
G1 X146.130 Y86.706 E0.01682
G1 X144.100 Y84.676 E0.09027
G1 X144.635 Y84.676 E0.01682
G1 X146.130 Y86.171 E0.06649
G1 X146.130 Y85.636 E0.01682
G1 X145.170 Y84.676 E0.04270
G1 X145.705 Y84.676 E0.01682
G1 X146.300 Y85.271 E0.02646
M106 S255
;BEFORE_LAYER_CHANGE
G92 E0.0
;0.35


G1 F8640
G1 X145.705 Y84.676 E-0.19428
G1 X145.170 Y84.676 E-0.12350
G1 X146.130 Y85.636 E-0.31352
G1 X146.130 Y86.171 E-0.12350
G1 X146.114 Y86.155 E-0.00520
G1 E-0.04000 F2100.00000
G1 Z0.800 F10800.000
;AFTER_LAYER_CHANGE
;0.35
M104 S210 ; set temperature
G1 X148.998 Y82.913
G1 Z0.350
G1 E0.80000 F2100.00000
G1 F3000
G1 X149.187 Y83.724 E0.02012
G1 X149.188 Y115.861 E0.77724
G1 X149.122 Y116.342 E0.01173
G1 X148.954 Y116.793 E0.01164
G1 X148.688 Y117.199 E0.01173
G1 X148.343 Y117.534 E0.01164
G1 X136.384 Y125.431 E0.34659
G1 X132.192 Y127.317 E0.11118
G1 X127.389 Y128.369 E0.11891
G1 X122.839 Y128.382 E0.11004
G1 X118.005 Y127.390 E0.11934
G1 X113.738 Y125.500 E0.11286
G1 X101.782 Y117.625 E0.34624
G1 X101.271 Y117.148 E0.01690
G1 X100.934 Y116.528 E0.01707
G1 X100.812 Y115.837 E0.01699
G1 X100.812 Y83.781 E0.77527
G1 X100.872 Y83.296 E0.01182
G1 X101.040 Y82.833 E0.01191
G1 X101.305 Y82.422 E0.01182
G1 X101.657 Y82.078 E0.01191
G1 X102.280 Y81.739 E0.01716
G1 X102.976 Y81.618 E0.01707
G1 X147.004 Y81.618 E1.06481
G1 X147.820 Y81.777 E0.02012
G1 X148.521 Y82.232 E0.02021
G1 X148.964 Y82.864 E0.01867
G1 F8640
G1 X149.187 Y83.724 E-0.20500
G1 X149.187 Y86.127 E-0.55500
G1 E-0.04000 F2100.00000
G1 Z0.950 F10800.000
G1 X146.357 Y84.449
G1 Z0.350
G1 E0.80000 F2100.00000
M73 Q3 S108
M73 P3 R108
M204 S800
G1 F2700
G1 X146.357 Y115.163 E0.80029
G1 X142.397 Y115.163 E0.10318
G1 X141.062 Y117.476 E0.06958
G1 X138.285 Y120.560 E0.10814
G1 X134.927 Y123.000 E0.10815
G1 X131.135 Y124.688 E0.10815
G1 X127.075 Y125.551 E0.10815
G1 X122.925 Y125.551 E0.10815
G1 X118.865 Y124.688 E0.10815
G1 X115.073 Y123.000 E0.10815
G1 X111.715 Y120.560 E0.10815
G1 X108.938 Y117.476 E0.10814
G1 X107.603 Y115.163 E0.06958
G1 X103.643 Y115.163 E0.10318
G1 X103.643 Y84.449 E0.80029
G1 X146.297 Y84.449 E1.11139
M204 S1000
G1 F8640
G1 X146.304 Y87.740 E-0.76000
G1 E-0.04000 F2100.00000
G1 Z0.950 F10800.000
G1 X142.638 Y115.581
G1 Z0.350
G1 E0.80000 F2100.00000
M204 S800
G1 F1500
G1 X141.402 Y117.723 E0.06443
G1 X138.566 Y120.873 E0.11043
G1 X135.137 Y123.364 E0.11043
G1 X131.265 Y125.088 E0.11043
G1 X127.119 Y125.969 E0.11043
G1 X122.881 Y125.969 E0.11043
G1 X118.735 Y125.088 E0.11043
G1 X114.863 Y123.364 E0.11043
G1 X111.434 Y120.873 E0.11043
G1 X108.598 Y117.723 E0.11043
G1 X107.362 Y115.581 E0.06443
G1 X103.225 Y115.581 E0.10778
G1 X103.225 Y84.031 E0.82206
G1 X146.775 Y84.031 E1.13473
G1 X146.775 Y115.581 E0.82206
G1 X142.698 Y115.581 E0.10622
M204 S1000
G1 X142.242 Y115.633 F10800.000
G1 X142.603 Y114.850
M204 S1250
G1 F4800
G1 X146.044 Y111.409 E0.12736
G1 X146.044 Y112.003 E0.01554
G1 X143.197 Y114.850 E0.10539
G1 X143.790 Y114.850 E0.01554
G1 X146.044 Y112.597 E0.08342
G1 X146.044 Y113.190 E0.01554
G1 X144.384 Y114.850 E0.06144
G1 X144.978 Y114.850 E0.01554
G1 X146.044 Y113.784 E0.03947
G1 X146.044 Y114.377 E0.01554
G1 X145.383 Y115.038 E0.02446
M204 S1000
G1 F8640
G1 X146.044 Y114.377 E-0.21573
G1 X146.044 Y113.784 E-0.13706
G1 X144.978 Y114.850 E-0.34817
G1 X144.722 Y114.850 E-0.05903
G1 E-0.04000 F2100.00000
G1 Z0.950 F10800.000
G1 X141.687 Y115.766
G1 Z0.350
G1 E0.80000 F2100.00000
M204 S1250
G1 F4800
G1 X134.692 Y122.762 E0.25896
G1 X133.622 Y123.238 E0.03066
G1 X146.044 Y110.816 E0.45984
G1 X146.044 Y110.222 E0.01554
G1 X132.552 Y123.714 E0.49945
G1 X131.482 Y124.191 E0.03066
G1 X146.044 Y109.629 E0.53906
G1 X146.044 Y109.035 E0.01554
G1 X130.597 Y124.482 E0.57182
G1 X129.843 Y124.642 E0.02017
G1 X146.044 Y108.442 E0.59972
G1 X146.044 Y107.848 E0.01554
G1 X129.089 Y124.803 E0.62762
G1 X128.335 Y124.963 E0.02017
G1 X146.044 Y107.254 E0.65553
G1 X146.044 Y106.661 E0.01554
G1 X127.581 Y125.123 E0.68343
G1 X127.042 Y125.238 E0.01443
G1 X126.873 Y125.238 E0.00442
